X: 8
T: Patsy Geary's
Z: UPipes & harp
S: https://thesession.org/tunes/325#setting49824
R: slide
M: 12/8
L: 1/8
K: Dmaj
AG|:F2 A AFA B=cB A2 G|F2 A d2 e ~f3 fef|
~g3 fgf efe d2 B|1 ABA AFD ~E3 EAG:|2 ABA efe ~d3 d2 e||
|:f2 e f2 e f2 e fga|~A3 BAF ABA ABd|
efe efe efe dfa|1baf afe ~d3 d2 e:|2 baf afe ~d3 dAG||

%-------------------- TUNE SEPARATOR --------------------%

